!!!COM: Fanny (Mendelssohn) Hensel
!!!CNT: Deutsch
!!!TXO: Deutsch
!!!OTL: "Das Meer ergla2nzte weit hinaus"
!!!LYR: Heine, Heinrich
!!!OPR: 
!!!OPS: Op. 
!!!ONM: No. 
!!!ENC: Emily Thomas
!!!YOR: Hensel: 16 Songs Fanny Mendelssohn Hensel
!!!YOR: Alfred, 1995
!!!ODT: 1838/
!!NB: Vocal melody and text encoded.
**kern	**silbe
=1	=1
*clefG2	*
*k[f#]	*
*M6/8	*
*MM[Andante con moto]	*
2.r	.
=2	=2
2.r	.
=3	=3
2.r	.
=4	=4
2.r	.
=5	=5
4r	.
8r	.
8r	.
{8e	{Das
8f#	|
=6	=6
[4.g	Meer
8g]	|
8g	er-
8a	|
=7	=7
[4.b	gla2nz-
8b]	|
8cc	-te
8dd	|
=8	=8
4.ee}	weit}
8r	.
{8dd	{hin-
8cc	|
=9	=9
4.b	-aus
8r	.
8g	im
8a	||
=10	=10
[4.b	letz-
8b]	|
8g	-ten
8a	|
=11	=11
[4.b	A-
8b]	|
8a	-bend-
8g	|
=12	=12
2.g	-schei-
=13	=13
4.f#}	-ne;}
8r	.
{8e	{wie
8f#	|
=14	=14
[4.g	sas-
8g]	|
8g	-sen
8a	am
=15	=15
[4.b	ein-
8b]	|
8cc	-sa-
8dd	-men
=16	=16
[4.ee	Fi-
8ee]	|
8dd	-scher-
8cc	|
=17	=17
4b}	-haus,}
8r	.
8r	.
{8b	{wir
8cc#	|
=18	=18
[4.dd	sas-
8dd]	|
8f#	-sen
8a#	|
=19	=19
4.b}	stumm}
8r	.
{8d	{und
8e	al-
=20	=20
2.f#	-lei-
=21	=21
4.d}	-ne.}
4r	.
8r	.
=22	=22
2.r	.
=23	=23
2.r	.
=24	=24
4r	.
8r	.
8r	.
{8b	{Der
8cc	|
=25	=25
[4.dd	Ne-
8dd]	|
8g	-bel
8a	|
=26	=26
4.b}	stieg,}
8r	.
{8cc	{das
8dd	|
=27	=27
[4.ee	Was-
8ee]	|
8g	-ser
8b	|
=28	=28
4cc}	schwoll,}
8r	.
8r	.
{8dd	{die
8ee	|
=29	=29
[4.ffn	Mo2-
8ffn]	|
8a	-we
8b	flog
=30	=30
[4.cc	hin
8cc]	|
8b	und
8a	|
=31	=31
[4.g	wie-
8g]	|
8a	|
8fn	|
=32	=32
4e}	-der;}
8r	.
4r	.
8r	.
=33	=33
2.r	.
=34	=34
2.r	.
=35	=35
2.r	.
=36	=36
4r	.
8r	.
8r	.
{8e	{aus
8f#	|
=37	=37
[4.g	dei-
8g]	|
8g	-nen
8a	|
=38	=38
[4.b	Au-
8b]	|
8cc#	-gen
8dd#	|
=39	=39
4.ee	lie-
4.dd	-be-
=40	=40
4.cc	voll
4.b}	|}
=41	=41
{4gg	{fie-
8ee	|
4cc	-len
8g	die
=42	=42
4e	Tra2-
8f#	-len
4g	-nen
8a	her
=43	=43
[2.b	-nie-
=44	=44
2.b_	|
=45	=45
4b]	|
8g	|
4e}	-der.}
8r	.
=46	=46
2.r	.
=47	=47
2.r	.
=48	=48
4r	.
8r	.
8r	.
{8e	{Ich
8f#	|
=49	=49
[4.g	sah
8g]	|
8g	sie
8a	|
=50	=50
[4.b	fal-
8b]	|
8cc	-len
8dd	auf
=51	=51
[4.ee	dei-
8ee]	|
8dd	-ne
8cc	|
=52	=52
4.b}	Hand,}
8r	.
{8g	{und
8a	|
=53	=53
[4.b	bin
8b]	|
8g	aufs
8a	|
=54	=54
[4.b	Knie
8b]	|
8a	ge-
8g	|
=55	=55
2.g	-sun-
=56	=56
4.f#}	-ken;}
8r	.
{8e	{ich
8f#	|
=57	=57
[4.g	hab'
8g]	|
8g	von
8a	|
=58	=58
[4.b	dei-
8b]	|
8cc	-ner
8dd	|
=59	=59
[4.ee	weis-
8ee]	|
8dd	-sen
8cc	|
=60	=60
4b}	Hand}
8r	.
8r	.
{8b	{die
8cc#	|
=61	=61
[4.dd	Tra2-
8dd]	|
8f#	-nen
8a#	|
=62	=62
[4.b	fort-
8b]	|
8d	-ge-
8e	|
=63	=63
2.f#	-trun-
=64	=64
4.d}	-ken.}
4r	.
8r	.
=65	=65
2.r	.
=66	=66
2.r	.
=67	=67
4r	.
8r	.
8r	.
{8b	{Seit
8cc	|
=68	=68
[4.dd	je-
8dd]	|
8g	-ner
8a	|
=69	=69
[4.b	Stun-
8b]	|
8cc	-de
8dd	ver-
=70	=70
[4.ee	-zehrt
8ee]	|
8g	sich
8b	mein
=71	=71
4cc}	Leib,}
8r	.
8r	.
{8dd	{die
8ee	|
=72	=72
[4.ffn	See-
8ffn]	|
8a	-le
8b	|
=73	=73
[4.cc	stirbt
8cc]	|
8b	vor
8a	|
=74	=74
[4.g	She-
8g]	|
8a	|
8fn	|
=75	=75
4e}	-nen;}
8r	.
4r	.
8r	.
=76	=76
2.r	.
=77	=77
2.r	.
=78	=78
2.r	.
=79	=79
4r	.
8r	.
8r	.
{8e	{mich
8f#	|
=80	=80
[4.g	hat
8g]	|
8g	das
8a	|
=81	=81
[4.b	un-
8b]	|
8cc#	-glu2ck-
8dd#	|
=82	=82
4.ee	-sel'-
4.dd	-ge
=83	=83
4.cc}	Weib}
{4.b	{ver-
=84	=84
4gg	-gif-
8ee	|
4cc	-tet
8g	mit
=85	=85
4e	ih-
8f#	|
4g	-ren
8a	|
=86	=86
[2.b	Tra2-
=87	=87
2.b_	|
=88	=88
4b]	|
8g	|
4e}	-nen.}
8r	.
==	==
*-	*-
